X:1
T:Soon One Mornin' Death Come Creepin'
M:2/2
L:1/8
K:Eb
 G4- E2 G2| G2 E4- G z| G2 G2 GF EC| E4-G/2-B/2 z z2| B6 G2| B2 B4 z2|\
 B2B-G BB cB| G4- E z z2| G6 G2|G-F E6|G-FG-F GF EC| E2 z2 E E3| G2- B z B B3|\
 G2 zE-E GF-G| E2 CC E4-| E4 z4|
